images/icon-prev-arrow.svg

<svg height="13" viewBox="0 0 7 13" width="7" xmlns="http://www.w3.org/2000/svg" xmlns:xlink="http://www.w3.org/1999/xlink"><defs><path id="a" d="m485.444336 14.9873047c-.059245 0-.116373-.0105793-.171387-.0317383-.055013-.021159-.103678-.0528969-.145996-.0952148-.084636-.0846359-.126953-.1861974-.126953-.3046875 0-.1184902.042317-.2200517.126953-.3046875l5.801758-5.80175785-5.712891-5.70019531c-.084636-.08463584-.126953-.18831319-.126953-.31103516s.042317-.22639932.126953-.31103516c.084636-.08463583.188314-.12695312.311035-.12695312.122722 0 .2264.04231729.311036.12695312l6.004882 6.01757813c.084636.08463584.126954.18619732.126954.3046875s-.042318.22005166-.126954.3046875l-6.09375 6.10644535c-.042317.0423179-.090982.0740558-.145996.0952148-.055013.021159-.10791.0317383-.158691.0317383z"/></defs><g fill="none" fill-rule="evenodd" transform="matrix(-1 0 0 1 491.969726 -2)"><use fill="#535355" xlink:href="#a"/><use fill="#fff" xlink:href="#a"/></g></svg>

<?xml version="1.0" encoding="UTF-8"?>
<svg width="7px" height="13px" viewBox="0 0 7 13" version="1.1" xmlns="http://www.w3.org/2000/svg" xmlns:xlink="http://www.w3.org/1999/xlink">
    <!-- Generator: Sketch 50.2 (55047) - http://www.bohemiancoding.com/sketch -->
    <title>Arrow_Previous_Icon</title>
    <desc>Created with Sketch.</desc>
    <defs>
        <path d="M485.444336,14.9873047 C485.385091,14.9873047 485.327963,14.9767254 485.272949,14.9555664 C485.217936,14.9344074 485.169271,14.9026695 485.126953,14.8603516 C485.042317,14.7757157 485,14.6741542 485,14.5556641 C485,14.4371739 485.042317,14.3356124 485.126953,14.2509766 L490.928711,8.44921875 L485.21582,2.74902344 C485.131184,2.6643876 485.088867,2.56071025 485.088867,2.43798828 C485.088867,2.31526631 485.131184,2.21158896 485.21582,2.12695312 C485.300456,2.04231729 485.404134,2 485.526855,2 C485.649577,2 485.753255,2.04231729 485.837891,2.12695312 L491.842773,8.14453125 C491.927409,8.22916709 491.969727,8.33072857 491.969727,8.44921875 C491.969727,8.56770893 491.927409,8.66927041 491.842773,8.75390625 L485.749023,14.8603516 C485.706706,14.9026695 485.658041,14.9344074 485.603027,14.9555664 C485.548014,14.9767254 485.495117,14.9873047 485.444336,14.9873047 Z" id="path-1"></path>
    </defs>
    <g id="Design" stroke="none" stroke-width="1" fill="none" fill-rule="evenodd">
        <g id="v.6" transform="translate(-1344.000000, -954.000000)">
            <g id="Hero-Content" transform="translate(809.000000, 0.000000)">
                <g id="slider-nav" transform="translate(50.000000, 952.000000)">
                    <g id="Arrow_Previous_Icon" transform="translate(488.484863, 8.493652) scale(-1, 1) translate(-488.484863, -8.493652) ">
                        <use fill="#535355" xlink:href="#path-1"></use>
                        <use fill="#FFFFFF" xlink:href="#path-1"></use>
                    </g>
                </g>
            </g>
        </g>
    </g>
</svg>
